Sources/FrostedUI/Resources/Icons.xcassets/people16.imageset/people-16.svg

<svg width="16" height="16" viewBox="0 0 16 16" fill="none" xmlns="http://www.w3.org/2000/svg" data-fui-icon="true">
  <path
    d="M5.33386 7.75C6.71467 7.75013 7.84319 8.30455 8.66492 9.22363C9.47129 10.1257 9.95637 11.3465 10.161 12.6729C10.2965 13.5513 9.58727 14.2498 8.78308 14.25H1.88464C1.08034 14.25 0.370238 13.5514 0.505737 12.6729L0.596558 12.1807C0.83759 11.0461 1.29712 10.0129 2.00281 9.22363C2.82462 8.30452 3.9529 7.75 5.33386 7.75ZM11.3339 7.75C12.5521 7.75011 13.5572 8.22515 14.2958 9.02051C15.0197 9.80026 15.4588 10.8536 15.6532 11.9941C15.8047 12.8835 15.0827 13.5828 14.2821 13.583H11.8339C11.4196 13.583 11.0839 13.2472 11.0839 12.833C11.084 12.4189 11.4198 12.083 11.8339 12.083H14.1425C13.9717 11.2206 13.6424 10.5216 13.1962 10.041C12.7365 9.54604 12.1279 9.2501 11.3339 9.25C11.0935 9.25 10.8728 9.27708 10.6718 9.32617C10.2695 9.42426 9.86379 9.17764 9.7655 8.77539C9.6674 8.3731 9.914 7.9674 10.3163 7.86914C10.6396 7.7902 10.9797 7.75 11.3339 7.75ZM5.33386 9.25C4.39307 9.25 3.66714 9.61282 3.12097 10.2236C2.58509 10.8231 2.20171 11.6917 2.01648 12.75H8.65125C8.46606 11.6918 8.08249 10.8231 7.54675 10.2236C7.00066 9.61284 6.27449 9.25012 5.33386 9.25ZM5.33386 1.75C6.94447 1.75026 8.24988 3.05632 8.24988 4.66699C8.2497 6.27751 6.94436 7.58275 5.33386 7.58301C3.72314 7.58301 2.41705 6.27767 2.41687 4.66699C2.41687 3.05616 3.72303 1.75 5.33386 1.75ZM11.3339 2.41699C12.7604 2.41725 13.9169 3.57343 13.9169 5C13.9169 6.42657 12.7604 7.58275 11.3339 7.58301C9.90713 7.58301 8.74988 6.42674 8.74988 5C8.74988 3.57326 9.90713 2.41699 11.3339 2.41699ZM5.33386 3.25C4.55146 3.25 3.91687 3.88459 3.91687 4.66699C3.91705 5.44925 4.55157 6.08301 5.33386 6.08301C6.11593 6.08275 6.7497 5.44908 6.74988 4.66699C6.74988 3.88475 6.11604 3.25026 5.33386 3.25ZM11.3339 3.91699C10.7356 3.91699 10.2499 4.40169 10.2499 5C10.2499 5.59831 10.7356 6.08301 11.3339 6.08301C11.9319 6.08275 12.4169 5.59815 12.4169 5C12.4169 4.40185 11.9319 3.91725 11.3339 3.91699Z"
    fill="currentColor"
  />
</svg>

<svg xmlns="http://www.w3.org/2000/svg" width="16" height="16" fill="none" data-fui-icon="true" viewBox="0 0 16 16"><path fill="currentColor" d="M5.334 7.75c1.38 0 2.51.555 3.33 1.474.807.902 1.292 2.123 1.497 3.449.136.878-.574 1.577-1.378 1.577H1.885c-.805 0-1.515-.699-1.38-1.577l.092-.492c.24-1.135.7-2.168 1.406-2.957.822-.92 1.95-1.474 3.33-1.474m6 0c1.218 0 2.223.475 2.962 1.27.724.78 1.163 1.834 1.357 2.974.152.89-.57 1.589-1.37 1.589h-2.45a.75.75 0 1 1 0-1.5h2.31c-.171-.862-.5-1.561-.947-2.042-.46-.495-1.068-.79-1.862-.791q-.36.001-.662.076a.75.75 0 0 1-.356-1.457q.486-.119 1.018-.119m-6 1.5c-.94 0-1.667.363-2.213.974-.536.6-.92 1.468-1.105 2.526h6.635c-.185-1.058-.569-1.927-1.104-2.526C7 9.613 6.274 9.25 5.334 9.25m0-7.5a2.917 2.917 0 1 1-.002 5.834 2.917 2.917 0 0 1 .002-5.834m6 .667a2.583 2.583 0 1 1 0 5.166 2.583 2.583 0 0 1 0-5.166m-6 .833a1.417 1.417 0 1 0 0 2.834 1.417 1.417 0 0 0 0-2.834m6 .667a1.084 1.084 0 1 0 0 2.167 1.084 1.084 0 0 0 0-2.167"/></svg>
